Numix-GalliumOS/48/categories/applications-ide.svg

<?xml version="1.0" encoding="UTF-8" standalone="no"?>
<svg
   xmlns:dc="http://purl.org/dc/elements/1.1/"
   xmlns:cc="http://creativecommons.org/ns#"
   xmlns:rdf="http://www.w3.org/1999/02/22-rdf-syntax-ns#"
   xmlns:svg="http://www.w3.org/2000/svg"
   xmlns="http://www.w3.org/2000/svg"
   xmlns:sodipodi="http://sodipodi.sourceforge.net/DTD/sodipodi-0.dtd"
   xmlns:inkscape="http://www.inkscape.org/namespaces/inkscape"
   width="47.5"
   height="47.5"
   viewBox="0 0 38 38"
   id="svg2"
   version="1.1"
   inkscape:version="0.91 r"
   sodipodi:docname="applications-ide.svg">
  <metadata
     id="metadata10">
    <rdf:RDF>
      <cc:Work
         rdf:about="">
        <dc:format>image/svg+xml</dc:format>
        <dc:type
           rdf:resource="http://purl.org/dc/dcmitype/StillImage" />
      </cc:Work>
    </rdf:RDF>
  </metadata>
  <defs
     id="defs8" />
  <sodipodi:namedview
     pagecolor="#ffffff"
     bordercolor="#666666"
     borderopacity="1"
     objecttolerance="10"
     gridtolerance="10"
     guidetolerance="10"
     inkscape:pageopacity="0"
     inkscape:pageshadow="2"
     inkscape:window-width="640"
     inkscape:window-height="480"
     id="namedview6" />
  <path
     style="fill:#cc7d6f"
     d="M 31.511719 4.160156 C 31.058594 4.199219 30.605469 4.425781 30.238281 4.78125 L 22.0625 11.890625 C 21.710938 12.230469 21.515625 12.710938 21.515625 13.195312 C 21.515625 13.429688 21.566406 13.640625 21.652344 13.847656 C 21.65625 13.859375 21.648438 13.875 21.652344 13.882812 C 21.347656 14.53125 21.445312 15.433594 21.445312 17.386719 C 21.445312 18.105469 19.574219 18.863281 19.109375 18.863281 C 19.085938 18.863281 19.0625 18.863281 19.039062 18.863281 C 17.554688 18.863281 12.730469 19.085938 11.242188 21.132812 C 9.753906 23.179688 4.164062 32.480469 4.164062 33.84375 C 6.394531 33.84375 22.605469 25.742188 23.4375 24.980469 C 24.441406 24.058594 23.949219 22.199219 23.300781 20.960938 C 23.304688 20.957031 23.296875 20.933594 23.300781 20.925781 C 23.316406 20.882812 23.324219 20.816406 23.265625 20.71875 C 22.917969 20.136719 22.714844 19.546875 22.714844 18.726562 C 22.714844 16.90625 22.90625 15.902344 23.300781 15.328125 C 24.175781 15.476562 25.449219 15.050781 26.015625 14.503906 L 33.195312 7.664062 C 33.925781 6.960938 34.097656 5.898438 33.367188 5.191406 L 32.78125 4.609375 C 32.417969 4.253906 31.960938 4.125 31.511719 4.164062 Z "
     id="path4" />
</svg>

<svg xmlns="http://www.w3.org/2000/svg" width="47.5" height="47.5" viewBox="0 0 38 38">
 <path d="m 31.512 4.16 c -0.453 0.039 -0.906 0.266 -1.273 0.621 l -8.176 7.109 c -0.352 0.34 -0.547 0.82 -0.547 1.305 c 0 0.234 0.051 0.445 0.137 0.652 c 0.004 0.012 -0.004 0.027 0 0.035 c -0.305 0.648 -0.207 1.551 -0.207 3.504 c 0 0.719 -1.871 1.477 -2.336 1.477 c -0.023 0 -0.047 0 -0.07 0 c -1.484 0 -6.309 0.223 -7.797 2.27 c -1.488 2.047 -7.078 11.348 -7.078 12.711 c 2.23 0 18.441 -8.102 19.273 -8.863 c 1 -0.922 0.512 -2.781 -0.137 -4.02 c 0.004 -0.004 -0.004 -0.027 0 -0.035 c 0.016 -0.043 0.023 -0.109 -0.035 -0.207 c -0.348 -0.582 -0.551 -1.172 -0.551 -1.992 c 0 -1.82 0.191 -2.824 0.586 -3.398 c 0.875 0.148 2.148 -0.277 2.715 -0.824 l 7.18 -6.84 c 0.73 -0.703 0.902 -1.766 0.172 -2.473 l -0.586 -0.582 c -0.363 -0.355 -0.82 -0.484 -1.27 -0.445 Z" style="fill:#cc7d6f"/>
</svg>
